X: 10544
T: Dorchacht Na Cgoille
R: waltz
M: 3/4
K: Eminor
Bd|e3d ef|g2f2e2|B2g3f|e4dc|B2AGFE|
D2E2GA|B3d ed|d4||dc|B4AG|BAG2ED|
D3E EG|A4Bd|e2g2fe|d2cBAG|B2AGED|E4||

